X: 10512
T: LADY ROTHES' REEL
C: Composed by Alex. Deas
R: reel
B: K\"ohler's Violin Repository, v.1, 1885 p.51 #2
F: http://www.archive.org/details/klersviolinrepos01edin
Z: 2011 John Chambers <jc:trillian.mit.edu>
M: C|
L: 1/8
K: G
|:\
vG2(BG) dGBd | (cA)ag fdg2 | gfga gdBd | cAag fgdB |
G2(BG) dGBd | (cA)ag fdg2 | gfga gdBG | EcAF G2(G || uc) |
Bddg fgdg | gdbd Bdg2 | (ga)gf egdg | BGAF G2(Gc) |
Bddg fgdg | gdbd Bdg2 | (gb)ab gdec | BGAF G2G "^Fine"|]

%%sep 2 1 500

